X: 1
T: On The Strand
M: 6/8
L: 1/8
R: jig
K: Bmin
FGA BfB | e2A cBA | FGA BfB | eAc efg | 
f2B afe | fdb ace | fdB eAc | dBG EFG :| 
|: fBB ABB | ~F2E FAB | ~f2B gaf | e2A (3Bcd e |
fBa fec | e2f edc | dBf ece | f2e fga :| 
|: baf abf- | ~f2e fga | bfa fed | e2d cBA |
BFd cAe | dBf efg | fBe AcA |1 d2c BAF :|2 d2c BAG ||
